; generated by SuperSlicer 2.3.56 on 2021-10-08 at 18:53:49 UTC

; 

; external perimeters extrusion width = 1.26mm
; perimeters extrusion width = 1.35mm
; infill extrusion width = 1.35mm
; solid infill extrusion width = 1.44mm
; top infill extrusion width = 1.44mm

; external perimeters extrusion width = 1.26mm
; perimeters extrusion width = 1.35mm
; infill extrusion width = 1.35mm
; solid infill extrusion width = 1.44mm
; top infill extrusion width = 1.44mm

; object:{"name":"Shape-Box","id":"Shape-Box id:0 copy 0","object_center":[150.000000,100.000000,0.000000],"boundingbox_center":[150.000000,100.000000,15.000000],"boundingbox_size":[30.000000,30.000000,30.000000]}
; object:{"name":"Shape-Box","id":"Shape-Box id:1 copy 0","object_center":[97.329957,100.000000,0.000000],"boundingbox_center":[97.329957,100.000000,15.000000],"boundingbox_size":[30.000000,30.000000,30.000000]}
; plater:{"center":[123.664979,100.000000,0.000000],"boundingbox_center":[123.664979,100.000000,15.000000],"boundingbox_size":[82.670043,30.000000,30.000000]}

;TYPE:Custom
T-1

M104 S225 T0 ; set extruder temp
M140 S65 ; set bed temp


G28
G29 S1

T0

M109 S225; wait for extruder temp
M190 S65 ; wait for bed temp

M98 P"prime.g"

G21 ; set units to millimeters
G90 ; use absolute coordinates
M83 ; use relative distances for extrusion
;LAYER_CHANGE
;Z:0.35
;HEIGHT:0.35
G1 Z0.350000 F10800
;Clean the nozzle must use a hardened nozzle!
;T0
;M98 P"brush.g"
G1 E-1.25000 F6000
G1 Z1.700000 F10800
G1 X77.126 Y78.688
G1 Z0.350000
G1 E1.25000 F6000
;TYPE:Skirt
;WIDTH:1.35
G1 F1155
M204 P1000
G1 X78.975 Y77.521 E0.37509
G1 X80.673 Y76.944 E0.30773
G1 X82.454 Y76.738 E0.30773
G1 X164.807 Y76.738 E14.13177
G1 X166.379 Y76.887 E0.27092
G1 X167.896 Y77.324 E0.27092
G1 X169.305 Y78.037 E0.27092
G1 X170.552 Y78.993 E0.26969
G1 X171.600 Y80.164 E0.26969
G1 X172.417 Y81.515 E0.27092
G1 X172.968 Y82.987 E0.26969
G1 X173.237 Y84.543 E0.27092
G1 X173.193 Y115.882 E5.37787
G1 X172.657 Y117.943 E0.36530
G1 X171.624 Y119.804 E0.36530
G1 X170.159 Y121.349 E0.36530
G1 X168.355 Y122.479 E0.36530
G1 X166.657 Y123.056 E0.30773
G1 X164.876 Y123.262 E0.30773
G1 X82.156 Y123.254 E14.19464
G1 X79.887 Y122.839 E0.39587
G1 X77.814 Y121.826 E0.39587
G1 X76.092 Y120.292 E0.39587
G1 X74.851 Y118.355 E0.39464
G1 X74.287 Y116.713 E0.29792
G1 X74.070 Y114.984 E0.29914
G1 X74.111 Y84.346 E5.25738
G1 X74.611 Y82.218 E0.37509
G1 X75.639 Y80.289 E0.37509
G1 X77.004 Y78.820 E0.34420
G1 X77.931 Y79.689 F10800
G1 F1155
G1 X77.982 Y79.635 E0.01275
G1 X79.595 Y78.640 E0.32524
G1 X81.008 Y78.176 E0.25526
G1 X82.480 Y78.013 E0.25413
G1 X164.807 Y78.013 E14.12723
G1 X167.439 Y78.515 E0.45987
G1 X169.709 Y79.951 E0.46098
G1 X171.294 Y82.120 E0.46098
G1 X171.971 Y84.713 E0.45987
G1 X171.940 Y115.626 E5.30464
G1 X171.492 Y117.421 E0.31735
G1 X170.598 Y119.047 E0.31848
G1 X169.317 Y120.390 E0.31848
G1 X167.735 Y121.360 E0.31848
G1 X166.322 Y121.824 E0.25526
G1 X164.850 Y121.987 E0.25413
G1 X82.245 Y121.982 E14.17495
G1 X80.290 Y121.629 E0.34100
G1 X78.505 Y120.755 E0.34100
G1 X77.028 Y119.425 E0.34100
G1 X75.970 Y117.735 E0.34213
G1 X75.516 Y116.367 E0.24735
G1 X75.344 Y114.929 E0.24848
G1 X75.373 Y84.539 E5.21507
G1 X75.795 Y82.691 E0.32524
G1 X76.685 Y81.017 E0.32524
G1 X77.808 Y79.820 E0.28160
; INIT printing object Shape-Box id:0 copy 0
;WIPE_START
G1 F8640
G1 X77.982 Y79.635 E-0.16777
G1 X79.297 Y78.823 E-1.01974
;WIPE_END
G1 E-0.06250 F6000
G1 Z1.700000 F10800
; printing object Shape-Box id:0 copy 0
G1 X137.060 Y87.060
G1 Z0.350000
G1 E1.25000 F6000
;TYPE:Internal perimeter
G1 F990
G1 X162.940 Y87.060 E4.44104
G1 X162.940 Y112.940 E4.44104
G1 X137.060 Y112.940 E4.44104
G1 X137.060 Y87.240 E4.41015
G1 X135.830 Y85.830 F10800
;TYPE:External perimeter
;WIDTH:1.26
G1 F660
G1 X164.170 Y85.830 E4.51982
G1 X164.170 Y114.170 E4.51982
G1 X135.830 Y114.170 E4.51982
G1 X135.830 Y86.010 E4.49112
G1 X136.869 Y86.430 F10800
;WIPE_START
G1 F8640
G1 X137.630 Y85.999 E-1.18750
;WIPE_END
G1 E-0.06250 F6000
G1 Z1.000000 F10800
G1 X159.871 Y87.370
G1 Z0.350000
G1 E1.25000 F6000
;TYPE:Solid infill
;WIDTH:1.37992
G1 F660
G1 X162.016 Y89.514 E0.53398
G1 X162.016 Y91.445 E0.33982
G1 X158.555 Y87.984 E0.86163
G1 X156.625 Y87.984 E0.33982
G1 X162.016 Y93.375 E1.34221
G1 X162.016 Y95.305 E0.33982
G1 X154.695 Y87.984 E1.82278
G1 X152.765 Y87.984 E0.33982
G1 X162.016 Y97.235 E2.30335
G1 X162.016 Y99.166 E0.33982
G1 X150.834 Y87.984 E2.78393
G1 X148.904 Y87.984 E0.33982
G1 X162.016 Y101.096 E3.26450
G1 X162.016 Y103.026 E0.33982
G1 X146.974 Y87.984 E3.74507
G1 X145.044 Y87.984 E0.33982
G1 X162.016 Y104.956 E4.22564
G1 X162.016 Y106.887 E0.33982
G1 X143.113 Y87.984 E4.70622
G1 X141.183 Y87.984 E0.33982
G1 X162.016 Y108.817 E5.18679
G1 X162.016 Y110.747 E0.33982
G1 X139.253 Y87.984 E5.66736
G1 X137.984 Y87.984 E0.22343
G1 X137.984 Y88.645 E0.11638
G1 X161.355 Y112.016 E5.81876
G1 X159.425 Y112.016 E0.33982
G1 X137.984 Y90.575 E5.33818
G1 X137.984 Y92.505 E0.33982
G1 X157.495 Y112.016 E4.85761
G1 X155.564 Y112.016 E0.33982
G1 X137.984 Y94.436 E4.37704
G1 X137.984 Y96.366 E0.33982
G1 X153.634 Y112.016 E3.89646
G1 X151.704 Y112.016 E0.33982
G1 X137.984 Y98.296 E3.41589
G1 X137.984 Y100.226 E0.33982
G1 X149.774 Y112.016 E2.93532
G1 X147.843 Y112.016 E0.33982
G1 X137.984 Y102.157 E2.45475
G1 X137.984 Y104.087 E0.33982
G1 X145.913 Y112.016 E1.97417
G1 X143.983 Y112.016 E0.33982
G1 X137.984 Y106.017 E1.49360
G1 X137.984 Y107.947 E0.33982
M106 S35
G1 X142.053 Y112.016 E1.01303
G1 X140.122 Y112.016 E0.33982
G1 X137.984 Y109.878 E0.53245
G1 X137.984 Y111.808 E0.33982
G1 X138.806 Y112.630 E0.20480
; INIT stop printing object Shape-Box id:0 copy 0
; INIT printing object Shape-Box id:1 copy 0
; INIT stop printing object Shape-Box id:1 copy 0
;WIPE_START
G1 F8640
G1 X137.984 Y111.808 E-0.76746
G1 X137.984 Y109.878 E-1.27343
G1 X140.122 Y112.016 E-1.99531
G1 X142.053 Y112.016 E-1.27343
G1 X137.984 Y107.947 E-3.79621
G1 X137.984 Y107.350 E-0.39417
;WIPE_END
G1 E-0.50000 F6000
G1 Z1.700000 F10800
M98 "purge.g"
T0
M98 P"prime.g"
M106 S35
G1 E-1.25000 F6000
; stop printing object Shape-Box id:1 copy 0
; printing object Shape-Box id:1 copy 0
G1 X137.983 Y120.711 F10800
G1 Z0.350000
G1 E1.25000 F6000
;TYPE:Skirt
;WIDTH:1.35
G1 F1155
G1 X82.326 Y120.709 E9.55080
G1 X80.693 Y120.420 E0.28460
G1 X79.199 Y119.685 E0.28562
G1 X77.970 Y118.563 E0.28562
G1 X77.102 Y117.143 E0.28562
G1 X76.618 Y114.884 E0.39636
G1 X76.638 Y84.714 E5.17718
G1 X76.981 Y83.158 E0.27337
G1 X77.728 Y81.751 E0.27337
G1 X78.823 Y80.594 E0.27337
G1 X80.187 Y79.772 E0.27337
G1 X82.494 Y79.288 E0.40445
G1 X164.806 Y79.288 E14.12472
G1 X166.987 Y79.707 E0.38119
G1 X168.864 Y80.906 E0.38220
G1 X170.162 Y82.709 E0.38119
G1 X170.703 Y84.864 E0.38119
G1 X170.682 Y115.394 E5.23892
G1 X170.319 Y116.920 E0.26928
G1 X169.570 Y118.293 E0.26826
G1 X168.488 Y119.421 E0.26826
G1 X167.143 Y120.228 E0.26928
G1 X164.836 Y120.712 E0.40445
G1 X138.163 Y120.711 E4.57704
G1 X138.163 Y119.437 F10800
G1 F1155
G1 X82.397 Y119.436 E9.56948
G1 X81.091 Y119.209 E0.22746
G1 X79.903 Y118.621 E0.22746
G1 X78.929 Y117.722 E0.22746
G1 X78.249 Y116.584 E0.22746
G1 X77.893 Y114.849 E0.30396
G1 X77.904 Y84.876 E5.14340
G1 X78.168 Y83.625 E0.21932
G1 X78.764 Y82.494 E0.21932
G1 X79.645 Y81.569 E0.21932
G1 X80.746 Y80.919 E0.21932
G1 X82.513 Y80.563 E0.30933
G1 X164.805 Y80.563 E14.12135
G1 X166.529 Y80.897 E0.30127
G1 X168.005 Y81.848 E0.30127
G1 X169.021 Y83.279 E0.30127
G1 X169.433 Y84.986 E0.30127
G1 X169.421 Y115.188 E5.18261
G1 X169.145 Y116.420 E0.21661
G1 X168.548 Y117.531 E0.21661
G1 X167.672 Y118.441 E0.21661
G1 X166.584 Y119.081 E0.21661
G1 X164.817 Y119.437 E0.30933
G1 X138.343 Y119.437 E4.54289
; INIT printing object Shape-Box id:0 copy 0
; INIT stop printing object Shape-Box id:0 copy 0
; INIT printing object Shape-Box id:1 copy 0
;WIPE_START
G1 F8640
G1 X136.543 Y119.437 E-1.18750
;WIPE_END
G1 E-0.06250 F6000
G1 Z1.700000 F10800
; stop printing object Shape-Box id:0 copy 0
; printing object Shape-Box id:1 copy 0
G1 X110.270 Y112.940
G1 Z0.350000
G1 E1.25000 F6000
;TYPE:Internal perimeter
G1 F990
G1 X84.390 Y112.940 E4.44104
G1 X84.390 Y87.060 E4.44104
G1 X110.270 Y87.060 E4.44104
G1 X110.270 Y112.760 E4.41015
G1 X111.500 Y114.170 F10800
;TYPE:External perimeter
;WIDTH:1.26
G1 F660
G1 X83.160 Y114.170 E4.51982
G1 X83.160 Y85.830 E4.51982
G1 X111.500 Y85.830 E4.51982
G1 X111.500 Y113.990 E4.49112
G1 X110.461 Y113.570 F10800
;WIPE_START
G1 F8640
G1 X109.700 Y114.001 E-1.18750
;WIPE_END
G1 E-0.06250 F6000
G1 Z1.000000 F10800
G1 X107.201 Y87.370
G1 Z0.350000
G1 E1.25000 F6000
;TYPE:Solid infill
;WIDTH:1.37992
G1 F660
G1 X109.346 Y89.514 E0.53398
G1 X109.346 Y91.445 E0.33982
G1 X105.885 Y87.984 E0.86163
G1 X103.955 Y87.984 E0.33982
G1 X109.346 Y93.375 E1.34221
G1 X109.346 Y95.305 E0.33982
G1 X102.025 Y87.984 E1.82278
G1 X100.095 Y87.984 E0.33982
G1 X109.346 Y97.235 E2.30335
G1 X109.346 Y99.166 E0.33982
G1 X98.164 Y87.984 E2.78393
G1 X96.234 Y87.984 E0.33982
G1 X109.346 Y101.096 E3.26450
G1 X109.346 Y103.026 E0.33982
G1 X94.304 Y87.984 E3.74507
G1 X92.374 Y87.984 E0.33982
G1 X109.346 Y104.956 E4.22564
G1 X109.346 Y106.887 E0.33982
G1 X90.443 Y87.984 E4.70622
G1 X88.513 Y87.984 E0.33982
G1 X109.346 Y108.817 E5.18679
G1 X109.346 Y110.747 E0.33982
G1 X86.583 Y87.984 E5.66736
G1 X85.314 Y87.984 E0.22343
G1 X85.314 Y88.645 E0.11638
G1 X108.685 Y112.016 E5.81876
G1 X106.755 Y112.016 E0.33982
G1 X85.314 Y90.575 E5.33818
G1 X85.314 Y92.505 E0.33982
G1 X104.825 Y112.016 E4.85761
G1 X102.894 Y112.016 E0.33982
G1 X85.314 Y94.436 E4.37704
G1 X85.314 Y96.366 E0.33982
G1 X100.964 Y112.016 E3.89646
G1 X99.034 Y112.016 E0.33982
G1 X85.314 Y98.296 E3.41589
G1 X85.314 Y100.226 E0.33982
G1 X97.104 Y112.016 E2.93532
G1 X95.173 Y112.016 E0.33982
G1 X85.314 Y102.157 E2.45475
G1 X85.314 Y104.087 E0.33982
G1 X93.243 Y112.016 E1.97417
G1 X91.313 Y112.016 E0.33982
G1 X85.314 Y106.017 E1.49360
G1 X85.314 Y107.947 E0.33982
G1 X89.383 Y112.016 E1.01303
G1 X87.452 Y112.016 E0.33982
G1 X85.314 Y109.878 E0.53245
G1 X85.314 Y111.808 E0.33982
G1 X86.136 Y112.630 E0.20480
; INIT stop printing object Shape-Box id:1 copy 0
;LAYER_CHANGE
;Z:1.2
;HEIGHT:0.85
; stop printing object Shape-Box id:1 copy 0
G1 Z1.200000 F10800
;Clean the nozzle must use a hardened nozzle!
;T1
;M98 P"brush.g"
M104 S220 T0 ; set temperature
; INIT printing object Shape-Box id:0 copy 0
; INIT stop printing object Shape-Box id:0 copy 0
; INIT printing object Shape-Box id:1 copy 0
G1 E-1.25000 F6000
G1 Z1.850000 F10800
; stop printing object Shape-Box id:0 copy 0
; printing object Shape-Box id:1 copy 0
G1 X84.083 Y113.247
G1 Z1.200000
G1 E1.25000 F6000
;TYPE:Internal perimeter
;WIDTH:1.35
G1 F1800
M204 P800
G1 X84.083 Y86.753 E10.11220
G1 X110.577 Y86.753 E10.11220
G1 X110.577 Y113.247 E10.11220
G1 X84.263 Y113.247 E10.04350
M204 P1000
G1 X82.960 Y114.370 F10800
;TYPE:External perimeter
;WIDTH:1.26
G1 F1200
M204 P800
G1 X82.960 Y85.630 E10.12359
G1 X111.700 Y85.630 E10.12359
G1 X111.700 Y114.370 E10.12359
G1 X83.140 Y114.370 E10.06018
M204 P1000
G1 X83.560 Y113.331 F10800
;WIPE_START
G1 F8640
G1 X83.129 Y112.570 E-1.18750
;WIPE_END
G1 E-0.06250 F6000
G1 Z1.850000 F10800
G1 X84.365 Y88.332
G1 Z1.200000
G1 E1.25000 F6000
;TYPE:Solid infill
;WIDTH:1.38695
G1 F1200
G1 X85.096 Y87.601 E0.40912
G1 X86.875 Y87.601 E0.70418
G1 X84.931 Y89.545 E1.08810
G1 X84.931 Y91.323 E0.70418
G1 X88.653 Y87.601 E2.08396
G1 X90.432 Y87.601 E0.70418
G1 X84.931 Y93.102 E3.07982
G1 X84.931 Y94.880 E0.70418
G1 X92.210 Y87.601 E4.07568
G1 X93.989 Y87.601 E0.70418
G1 X84.931 Y96.659 E5.07155
G1 X84.931 Y98.437 E0.70418
G1 X95.767 Y87.601 E6.06741
G1 X97.546 Y87.601 E0.70418
G1 X84.931 Y100.216 E7.06327
G1 X84.931 Y101.994 E0.70418
G1 X99.324 Y87.601 E8.05913
G1 X101.103 Y87.601 E0.70418
G1 X84.931 Y103.773 E9.05499
G1 X84.931 Y105.551 E0.70418
G1 X102.881 Y87.601 E10.05085
G1 X104.660 Y87.601 E0.70418
G1 X84.931 Y107.330 E11.04671
G1 X84.931 Y109.108 E0.70418
G1 X106.438 Y87.601 E12.04257
G1 X108.217 Y87.601 E0.70418
G1 X84.931 Y110.887 E13.03844
G1 X84.931 Y112.399 E0.59866
G1 X85.198 Y112.399 E0.10552
G1 X109.729 Y87.868 E13.73585
G1 X109.729 Y89.646 E0.70418
G1 X86.976 Y112.399 E12.73999
G1 X88.755 Y112.399 E0.70418
G1 X109.729 Y91.425 E11.74413
G1 X109.729 Y93.203 E0.70418
G1 X90.533 Y112.399 E10.74826
G1 X92.312 Y112.399 E0.70418
G1 X109.729 Y94.982 E9.75240
G1 X109.729 Y96.760 E0.70418
G1 X94.090 Y112.399 E8.75654
G1 X95.869 Y112.399 E0.70418
G1 X109.729 Y98.539 E7.76068
G1 X109.729 Y100.317 E0.70418
G1 X97.647 Y112.399 E6.76482
G1 X99.426 Y112.399 E0.70418
G1 X109.729 Y102.096 E5.76896
G1 X109.729 Y103.874 E0.70418
G1 X101.204 Y112.399 E4.77310
G1 X102.983 Y112.399 E0.70418
G1 X109.729 Y105.653 E3.77724
M106 S35
G1 X109.729 Y107.431 E0.70418
G1 X104.761 Y112.399 E2.78137
G1 X106.540 Y112.399 E0.70418
G1 X109.729 Y109.210 E1.78551
G1 X109.729 Y110.988 E0.70418
G1 X107.752 Y112.965 E1.10653
; INIT stop printing object Shape-Box id:1 copy 0
;WIPE_START
G1 F8640
G1 X109.729 Y110.988 E-1.84372
G1 X109.729 Y109.210 E-1.17331
G1 X106.540 Y112.399 E-2.97504
G1 X104.761 Y112.399 E-1.17331
G1 X107.264 Y109.896 E-2.33461
;WIPE_END
G1 E-0.50000 F6000
G1 Z1.850000 F10800
M98 "purge.g"
T1
M98 P"prime.g"
; INIT printing object Shape-Box id:0 copy 0
; stop printing object Shape-Box id:1 copy 0
; printing object Shape-Box id:0 copy 0
G1 X136.753 Y113.247
G1 Z1.200000
G1 E10.00000 F6000
;TYPE:Internal perimeter
;WIDTH:1.35
G1 F1800
M204 P800
G1 X136.753 Y86.753 E10.11220
G1 X163.247 Y86.753 E10.11220
G1 X163.247 Y113.247 E10.11220
G1 X136.933 Y113.247 E10.04350
M204 P1000
G1 X135.630 Y114.370 F10800
;TYPE:External perimeter
;WIDTH:1.26
G1 F1200
M204 P800
G1 X135.630 Y85.630 E10.12359
G1 X164.370 Y85.630 E10.12359
G1 X164.370 Y114.370 E10.12359
G1 X135.810 Y114.370 E10.06018
M204 P1000
G1 X136.230 Y113.331 F10800
;WIPE_START
G1 F8640
G1 X135.799 Y112.570 E-1.18750
;WIPE_END
G1 E-0.06250 F6000
G1 Z1.850000 F10800
G1 X137.035 Y88.332
G1 Z1.200000
G1 E1.25000 F6000
;TYPE:Solid infill
;WIDTH:1.38695
G1 F1200
G1 X137.766 Y87.601 E0.40912
G1 X139.545 Y87.601 E0.70418
G1 X137.601 Y89.545 E1.08810
G1 X137.601 Y91.323 E0.70418
G1 X141.323 Y87.601 E2.08396
G1 X143.102 Y87.601 E0.70418
G1 X137.601 Y93.102 E3.07982
G1 X137.601 Y94.880 E0.70418
G1 X144.880 Y87.601 E4.07568
G1 X146.659 Y87.601 E0.70418
G1 X137.601 Y96.659 E5.07155
G1 X137.601 Y98.437 E0.70418
G1 X148.437 Y87.601 E6.06741
G1 X150.216 Y87.601 E0.70418
G1 X137.601 Y100.216 E7.06327
G1 X137.601 Y101.994 E0.70418
G1 X151.994 Y87.601 E8.05913
G1 X153.773 Y87.601 E0.70418
G1 X137.601 Y103.773 E9.05499
G1 X137.601 Y105.551 E0.70418
G1 X155.551 Y87.601 E10.05085
G1 X157.330 Y87.601 E0.70418
G1 X137.601 Y107.330 E11.04671
G1 X137.601 Y109.108 E0.70418
G1 X159.108 Y87.601 E12.04257
G1 X160.887 Y87.601 E0.70418
G1 X137.601 Y110.887 E13.03844
G1 X137.601 Y112.399 E0.59866
G1 X137.868 Y112.399 E0.10552
G1 X162.399 Y87.868 E13.73585
G1 X162.399 Y89.646 E0.70418
G1 X139.646 Y112.399 E12.73999
G1 X141.425 Y112.399 E0.70418
G1 X162.399 Y91.425 E11.74413
G1 X162.399 Y93.203 E0.70418
G1 X143.203 Y112.399 E10.74826
G1 X144.982 Y112.399 E0.70418
G1 X162.399 Y94.982 E9.75240
G1 X162.399 Y96.760 E0.70418
G1 X146.760 Y112.399 E8.75654
G1 X148.539 Y112.399 E0.70418
G1 X162.399 Y98.539 E7.76068
G1 X162.399 Y100.317 E0.70418
G1 X150.317 Y112.399 E6.76482
G1 X152.096 Y112.399 E0.70418
G1 X162.399 Y102.096 E5.76896
G1 X162.399 Y103.874 E0.70418
G1 X153.874 Y112.399 E4.77310
G1 X155.653 Y112.399 E0.70418
M106 S89.25
G1 X162.399 Y105.653 E3.77724
G1 X162.399 Y107.431 E0.70418
G1 X157.431 Y112.399 E2.78137
G1 X159.210 Y112.399 E0.70418
G1 X162.399 Y109.210 E1.78551
G1 X162.399 Y110.988 E0.70418
G1 X160.422 Y112.965 E1.10653
; INIT stop printing object Shape-Box id:0 copy 0
; INIT printing object Shape-Box id:1 copy 0
; INIT stop printing object Shape-Box id:1 copy 0
M106 S89.25
;LAYER_CHANGE
;Z:2.05
;HEIGHT:0.85
; stop printing object Shape-Box id:1 copy 0
; printing object Shape-Box id:1 copy 0
G1 Z2.050000 F10800
;Clean the nozzle must use a hardened nozzle!
;T0
