; generated by SuperSlicer 2.3.56 on 2021-10-08 at 20:38:52 UTC

; 

; external perimeters extrusion width = 1.00mm
; perimeters extrusion width = 1.00mm
; infill extrusion width = 1.00mm
; solid infill extrusion width = 1.25mm
; top infill extrusion width = 1.05mm
; first layer extrusion width = 1.20mm

; external perimeters extrusion width = 1.00mm
; perimeters extrusion width = 1.00mm
; infill extrusion width = 1.00mm
; solid infill extrusion width = 1.25mm
; top infill extrusion width = 1.05mm
; first layer extrusion width = 1.20mm

; object:{"name":"Shape-Box","id":"Shape-Box id:0 copy 0","object_center":[150.000000,100.000000,0.000000],"boundingbox_center":[150.000000,100.000000,15.000000],"boundingbox_size":[30.000000,30.000000,30.000000]}
; object:{"name":"Shape-Box","id":"Shape-Box id:0 copy 1","object_center":[120.250624,70.666379,0.000000],"boundingbox_center":[120.250624,70.666379,15.000000],"boundingbox_size":[30.000000,30.000000,30.000000]}
; object:{"name":"Shape-Box","id":"Shape-Box id:1 copy 0","object_center":[120.336151,100.293799,0.000000],"boundingbox_center":[120.336151,100.293799,15.000000],"boundingbox_size":[30.000000,30.000000,30.000000]}
; object:{"name":"Shape-Box","id":"Shape-Box id:1 copy 1","object_center":[149.569373,70.161920,0.000000],"boundingbox_center":[149.569373,70.161920,15.000000],"boundingbox_size":[30.000000,30.000000,30.000000]}
; plater:{"center":[135.125312,85.227860,0.000000],"boundingbox_center":[135.125312,85.227860,15.000000],"boundingbox_size":[59.749376,60.131879,30.000000]}

;TYPE:Custom
T-1

M104 S225 T0 ; set extruder temp
M140 S65 ; set bed temp


G28
G29 S1

T0

M109 S225; wait for extruder temp
M190 S65 ; wait for bed temp

M98 P"prime.g"

G21 ; set units to millimeters
G90 ; use absolute coordinates
M83 ; use relative distances for extrusion
;LAYER_CHANGE
;Z:0.25
;HEIGHT:0.25
G1 Z0.250000 F10800
;Clean the nozzle must use a hardened nozzle!
;T0
;M98 P"brush.g"
G1 E-1.25000 F6000
G1 Z1.400000 F10800
G1 X97.986 Y52.956 F48000
G1 Z0.250000 F10800
G1 E1.25000 F6000
;TYPE:Skirt
;WIDTH:1.2
G1 F1200
G1 X99.400 Y50.615 E0.30141
G1 X100.574 Y49.509 E0.17774
G1 X101.946 Y48.661 E0.17774
G1 X103.460 Y48.105 E0.17774
G1 X105.047 Y47.864 E0.17697
G1 X134.701 Y47.350 E3.26879
G1 X164.376 Y47.350 E3.27056
G1 X165.850 Y47.488 E0.16316
G1 X167.280 Y47.897 E0.16393
G1 X168.604 Y48.560 E0.16316
G1 X169.783 Y49.455 E0.16316
G1 X170.777 Y50.552 E0.16316
G1 X171.553 Y51.813 E0.16316
G1 X172.083 Y53.195 E0.16316
G1 X172.350 Y54.651 E0.16316
G1 X172.812 Y85.140 E3.36065
G1 X172.810 Y114.982 E3.28892
G1 X172.272 Y117.691 E0.30445
G1 X170.851 Y120.052 E0.30369
G1 X169.621 Y121.200 E0.18540
G1 X168.179 Y122.065 E0.18540
G1 X166.587 Y122.610 E0.18540
G1 X164.924 Y122.811 E0.18464
G1 X135.174 Y123.106 E3.27904
G1 X105.326 Y123.103 E3.28955
G1 X102.638 Y122.564 E0.30217
G1 X100.284 Y121.145 E0.30293
G1 X99.132 Y119.909 E0.18617
G1 X98.268 Y118.466 E0.18540
G1 X97.723 Y116.867 E0.18617
G1 X97.525 Y115.197 E0.18540
G1 X97.442 Y55.636 E6.56442
G1 X97.950 Y53.132 E0.28157
G1 X99.060 Y53.357 F48000
G1 F1200
G1 X100.307 Y51.318 E0.26343
G1 X101.318 Y50.383 E0.15171
G1 X102.495 Y49.669 E0.15171
G1 X103.784 Y49.206 E0.15100
G1 X105.146 Y49.007 E0.15171
G1 X134.710 Y48.496 E3.25873
G1 X164.376 Y48.496 E3.26962
G1 X166.874 Y48.969 E0.28019
G1 X169.033 Y50.323 E0.28089
G1 X170.550 Y52.371 E0.28089
G1 X171.214 Y54.825 E0.28019
G1 X171.666 Y85.146 E3.34215
G1 X171.665 Y114.936 E3.28321
G1 X171.198 Y117.292 E0.26475
G1 X169.943 Y119.348 E0.26545
G1 X168.891 Y120.314 E0.15739
G1 X167.662 Y121.041 E0.15739
G1 X166.309 Y121.498 E0.15739
G1 X164.891 Y121.665 E0.15739
G1 X135.172 Y121.960 E3.27557
G1 X105.381 Y121.958 E3.28335
G1 X103.032 Y121.487 E0.26405
G1 X100.988 Y120.237 E0.26405
G1 X100.018 Y119.180 E0.15810
G1 X99.290 Y117.944 E0.15810
G1 X98.834 Y116.584 E0.15810
G1 X98.671 Y115.159 E0.15810
G1 X98.587 Y55.692 E6.55404
G1 X99.024 Y53.533 E0.24272
; INIT printing object Shape-Box id:0 copy 0
;WIPE_START
G1 F38400
G1 X99.060 Y53.356 E-0.02683
G1 X100.307 Y51.318 E-0.35468
G1 X101.318 Y50.383 E-0.20433
G1 X102.495 Y49.669 E-0.20433
G1 X103.784 Y49.206 E-0.20337
G1 X105.077 Y49.017 E-0.19395
;WIPE_END
G1 E-0.06250 F6000
G1 Z1.400000 F10800
; printing object Shape-Box id:0 copy 0
G1 X136.946 Y86.946 F48000
G1 Z0.250000 F10800
G1 E1.25000 F6000
;TYPE:Internal perimeter
G1 F1200
G1 X163.054 Y86.946 E2.87736
G1 X163.054 Y113.054 E2.87736
G1 X136.946 Y113.054 E2.87736
G1 X136.946 Y87.126 E2.85753
G1 X135.800 Y85.800 F48000
;TYPE:External perimeter
G1 F1200
G1 X164.200 Y85.800 E3.13005
G1 X164.200 Y114.200 E3.13005
G1 X135.800 Y114.200 E3.13005
G1 X135.800 Y85.980 E3.11021
G1 X136.839 Y86.400 F48000
;WIPE_START
G1 F38400
G1 X143.800 Y85.929 E-1.18750
;WIPE_END
G1 E-0.06250 F6000
G1 Z0.900000 F10800
G1 X160.450 Y87.233 F48000
G1 Z0.250000 F10800
G1 E1.25000 F6000
;TYPE:Solid infill
;WIDTH:1.15949
G1 F1800
G1 X162.251 Y89.034 E0.27129
G1 X162.251 Y90.655 E0.17264
G1 X159.345 Y87.749 E0.43776
G1 X157.723 Y87.749 E0.17264
G1 X162.251 Y92.277 E0.68191
G1 X162.251 Y93.898 E0.17264
G1 X156.102 Y87.749 E0.92607
G1 X154.481 Y87.749 E0.17264
G1 X162.251 Y95.519 E1.17022
G1 X162.251 Y97.140 E0.17264
G1 X152.860 Y87.749 E1.41438
G1 X151.239 Y87.749 E0.17264
G1 X162.251 Y98.761 E1.65853
G1 X162.251 Y100.383 E0.17264
G1 X149.617 Y87.749 E1.90269
G1 X147.996 Y87.749 E0.17264
G1 X162.251 Y102.004 E2.14685
G1 X162.251 Y103.625 E0.17264
G1 X146.375 Y87.749 E2.39100
G1 X144.754 Y87.749 E0.17264
G1 X162.251 Y105.246 E2.63516
G1 X162.251 Y106.867 E0.17264
G1 X143.133 Y87.749 E2.87931
G1 X141.512 Y87.749 E0.17264
G1 X162.251 Y108.488 E3.12347
G1 X162.251 Y110.110 E0.17264
G1 X139.890 Y87.749 E3.36762
G1 X138.269 Y87.749 E0.17264
G1 X162.251 Y111.731 E3.61178
G1 X162.251 Y112.251 E0.05542
G1 X161.150 Y112.251 E0.11723
G1 X137.749 Y88.850 E3.52437
G1 X137.749 Y90.471 E0.17264
G1 X159.529 Y112.251 E3.28021
G1 X157.908 Y112.251 E0.17264
G1 X137.749 Y92.092 E3.03606
G1 X137.749 Y93.713 E0.17264
G1 X156.287 Y112.251 E2.79190
G1 X154.666 Y112.251 E0.17264
G1 X137.749 Y95.334 E2.54774
G1 X137.749 Y96.955 E0.17264
G1 X153.045 Y112.251 E2.30359
G1 X151.423 Y112.251 E0.17264
G1 X137.749 Y98.577 E2.05943
G1 X137.749 Y100.198 E0.17264
G1 X149.802 Y112.251 E1.81528
G1 X148.181 Y112.251 E0.17264
G1 X137.749 Y101.819 E1.57112
G1 X137.749 Y103.440 E0.17264
G1 X146.560 Y112.251 E1.32697
G1 X144.939 Y112.251 E0.17264
G1 X137.749 Y105.061 E1.08281
G1 X137.749 Y106.683 E0.17264
G1 X143.317 Y112.251 E0.83866
G1 X141.696 Y112.251 E0.17264
G1 X137.749 Y108.304 E0.59450
G1 X137.749 Y109.925 E0.17264
G1 X140.075 Y112.251 E0.35034
G1 X138.454 Y112.251 E0.17264
G1 X137.233 Y111.030 E0.18388
; INIT stop printing object Shape-Box id:0 copy 0
; INIT printing object Shape-Box id:1 copy 0
; INIT stop printing object Shape-Box id:1 copy 0
; INIT printing object Shape-Box id:0 copy 1
;WIPE_START
G1 F38400
G1 X138.454 Y112.251 E-0.25630
G1 X140.075 Y112.251 E-0.24064
G1 X137.749 Y109.925 E-0.48834
G1 X137.749 Y108.563 E-0.20222
;WIPE_END
G1 E-0.06250 F6000
G1 Z1.400000 F10800
; stop printing object Shape-Box id:1 copy 0
; printing object Shape-Box id:0 copy 1
G1 X133.304 Y83.720 F48000
G1 Z0.250000 F10800
G1 E1.25000 F6000
;TYPE:Internal perimeter
;WIDTH:1.2
G1 F1200
G1 X107.197 Y83.720 E2.87736
G1 X107.197 Y57.613 E2.87736
G1 X133.304 Y57.613 E2.87736
G1 X133.304 Y83.540 E2.85753
G1 X134.451 Y84.866 F48000
;TYPE:External perimeter
G1 F1200
G1 X106.051 Y84.866 E3.13005
G1 X106.051 Y56.466 E3.13005
G1 X134.451 Y56.466 E3.13005
G1 X134.451 Y84.686 E3.11021
G1 X133.411 Y84.266 F48000
;WIPE_START
G1 F38400
G1 X126.451 Y84.737 E-1.18750
;WIPE_END
G1 E-0.06250 F6000
G1 Z0.900000 F10800
G1 X130.700 Y57.899 F48000
G1 Z0.250000 F10800
G1 E1.25000 F6000
;TYPE:Solid infill
;WIDTH:1.15949
G1 F1800
G1 X132.502 Y59.701 E0.27129
G1 X132.502 Y61.322 E0.17264
G1 X129.595 Y58.415 E0.43776
G1 X127.974 Y58.415 E0.17264
G1 X132.502 Y62.943 E0.68191
G1 X132.502 Y64.564 E0.17264
G1 X126.353 Y58.415 E0.92607
G1 X124.732 Y58.415 E0.17264
G1 X132.502 Y66.185 E1.17022
G1 X132.502 Y67.807 E0.17264
G1 X123.110 Y58.415 E1.41438
G1 X121.489 Y58.415 E0.17264
G1 X132.502 Y69.428 E1.65853
G1 X132.502 Y71.049 E0.17264
G1 X119.868 Y58.415 E1.90269
G1 X118.247 Y58.415 E0.17264
G1 X132.502 Y72.670 E2.14685
G1 X132.502 Y74.291 E0.17264
G1 X116.626 Y58.415 E2.39100
G1 X115.005 Y58.415 E0.17264
G1 X132.502 Y75.912 E2.63516
G1 X132.502 Y77.534 E0.17264
G1 X113.383 Y58.415 E2.87931
G1 X111.762 Y58.415 E0.17264
G1 X132.502 Y79.155 E3.12347
G1 X132.502 Y80.776 E0.17264
G1 X110.141 Y58.415 E3.36762
G1 X108.520 Y58.415 E0.17264
G1 X132.502 Y82.397 E3.61178
G1 X132.502 Y82.918 E0.05542
G1 X131.401 Y82.918 E0.11723
G1 X107.999 Y59.516 E3.52437
G1 X107.999 Y61.137 E0.17264
G1 X129.780 Y82.918 E3.28021
G1 X128.159 Y82.918 E0.17264
G1 X107.999 Y62.758 E3.03606
G1 X107.999 Y64.380 E0.17264
G1 X126.537 Y82.918 E2.79190
G1 X124.916 Y82.918 E0.17264
G1 X107.999 Y66.001 E2.54774
G1 X107.999 Y67.622 E0.17264
G1 X123.295 Y82.918 E2.30359
G1 X121.674 Y82.918 E0.17264
G1 X107.999 Y69.243 E2.05943
G1 X107.999 Y70.864 E0.17264
G1 X120.053 Y82.918 E1.81528
G1 X118.432 Y82.918 E0.17264
G1 X107.999 Y72.485 E1.57112
G1 X107.999 Y74.107 E0.17264
G1 X116.810 Y82.918 E1.32697
G1 X115.189 Y82.918 E0.17264
M106 S35
G1 X107.999 Y75.728 E1.08281
G1 X107.999 Y77.349 E0.17264
G1 X113.568 Y82.918 E0.83866
G1 X111.947 Y82.918 E0.17264
G1 X107.999 Y78.970 E0.59450
G1 X107.999 Y80.591 E0.17264
G1 X110.326 Y82.918 E0.35034
G1 X108.704 Y82.918 E0.17264
G1 X107.484 Y81.697 E0.18388
; INIT stop printing object Shape-Box id:0 copy 1
; INIT printing object Shape-Box id:1 copy 1
; INIT stop printing object Shape-Box id:1 copy 1
G1 Z1.400000 F10800
M98 P"parkprep.g"
T1
M98 P"prime.g"
M106 S35
G1 E-1.25000 F6000
; stop printing object Shape-Box id:1 copy 1
; printing object Shape-Box id:1 copy 1
G1 X99.769 Y81.708 F48000
G1 Z0.250000 F10800
G1 E1.25000 F6000
;TYPE:Skirt
;WIDTH:1.2
G1 F1200
G1 X99.732 Y55.742 E2.86172
G1 X100.133 Y53.761 E0.22283
G1 X101.198 Y52.042 E0.22283
G1 X103.022 Y50.688 E0.25033
G1 X105.235 Y50.151 E0.25097
G1 X134.718 Y49.643 E3.24997
G1 X164.375 Y49.642 E3.26859
G1 X166.470 Y50.042 E0.23500
G1 X168.277 Y51.185 E0.23564
G1 X169.535 Y52.906 E0.23500
G1 X170.076 Y54.975 E0.23564
G1 X170.519 Y85.159 E3.32704
G1 X170.519 Y114.889 E3.27661
G1 X170.124 Y116.889 E0.22475
G1 X169.053 Y118.624 E0.22475
G1 X168.178 Y119.416 E0.13001
G1 X167.159 Y120.010 E0.13000
G1 X166.040 Y120.383 E0.13001
G1 X164.863 Y120.519 E0.13065
G1 X135.163 Y120.813 E3.27341
G1 X105.430 Y120.812 E3.27701
G1 X103.436 Y120.414 E0.22411
G1 X101.712 Y119.347 E0.22347
G1 X100.917 Y118.467 E0.13065
G1 X100.321 Y117.442 E0.13065
G1 X99.949 Y116.317 E0.13065
G1 X99.817 Y115.139 E0.13065
G1 X99.770 Y81.888 E3.66469
G1 X100.915 Y81.886 F48000
G1 F1200
G1 X100.878 Y55.787 E2.87643
G1 X101.202 Y54.175 E0.18126
G1 X102.075 Y52.781 E0.18126
G1 X103.542 Y51.711 E0.20013
G1 X105.304 Y51.296 E0.19956
G1 X134.733 Y50.789 E3.24389
G1 X164.375 Y50.789 E3.26690
G1 X166.066 Y51.115 E0.18985
G1 X167.513 Y52.040 E0.18928
G1 X168.516 Y53.434 E0.18928
G1 X168.935 Y55.105 E0.18985
G1 X169.373 Y85.166 E3.31345
G1 X169.373 Y114.853 E3.27191
G1 X169.055 Y116.477 E0.18241
G1 X168.176 Y117.885 E0.18298
G1 X166.757 Y118.933 E0.19442
G1 X165.047 Y119.367 E0.19442
G1 X135.176 Y119.667 E3.29227
G1 X105.367 Y119.664 E3.28534
G1 X103.805 Y119.327 E0.17610
G1 X102.451 Y118.469 E0.17668
G1 X101.356 Y116.950 E0.20640
G1 X100.963 Y115.119 E0.20640
G1 X100.916 Y82.066 E3.64283
; INIT printing object Shape-Box id:0 copy 0
; INIT stop printing object Shape-Box id:0 copy 0
; INIT printing object Shape-Box id:1 copy 0
;WIPE_START
G1 F38400
G1 X100.904 Y74.066 E-1.18750
;WIPE_END
G1 E-0.06250 F6000
G1 Z1.400000 F10800
; stop printing object Shape-Box id:0 copy 0
; printing object Shape-Box id:1 copy 0
G1 X107.282 Y87.240 F48000
G1 Z0.250000 F10800
G1 E1.25000 F6000
;TYPE:Internal perimeter
G1 F1200
G1 X133.390 Y87.240 E2.87736
G1 X133.390 Y113.347 E2.87736
G1 X107.282 Y113.347 E2.87736
G1 X107.282 Y87.420 E2.85753
G1 X106.136 Y86.094 F48000
;TYPE:External perimeter
G1 F1200
G1 X134.536 Y86.094 E3.13005
G1 X134.536 Y114.494 E3.13005
G1 X106.136 Y114.494 E3.13005
G1 X106.136 Y86.274 E3.11021
G1 X107.175 Y86.694 F48000
;WIPE_START
G1 F38400
G1 X114.136 Y86.223 E-1.18750
;WIPE_END
G1 E-0.06250 F6000
G1 Z0.900000 F10800
G1 X130.786 Y87.527 F48000
G1 Z0.250000 F10800
G1 E1.25000 F6000
;TYPE:Solid infill
;WIDTH:1.15949
G1 F1800
G1 X132.587 Y89.328 E0.27129
G1 X132.587 Y90.949 E0.17264
G1 X129.681 Y88.043 E0.43776
G1 X128.060 Y88.043 E0.17264
G1 X132.587 Y92.570 E0.68191
G1 X132.587 Y94.192 E0.17264
G1 X126.438 Y88.043 E0.92607
G1 X124.817 Y88.043 E0.17264
G1 X132.587 Y95.813 E1.17022
G1 X132.587 Y97.434 E0.17264
G1 X123.196 Y88.043 E1.41438
G1 X121.575 Y88.043 E0.17264
G1 X132.587 Y99.055 E1.65853
G1 X132.587 Y100.676 E0.17264
G1 X119.954 Y88.043 E1.90269
G1 X118.332 Y88.043 E0.17264
G1 X132.587 Y102.298 E2.14685
G1 X132.587 Y103.919 E0.17264
G1 X116.711 Y88.043 E2.39100
G1 X115.090 Y88.043 E0.17264
G1 X132.587 Y105.540 E2.63516
G1 X132.587 Y107.161 E0.17264
G1 X113.469 Y88.043 E2.87931
G1 X111.848 Y88.043 E0.17264
G1 X132.587 Y108.782 E3.12347
G1 X132.587 Y110.403 E0.17264
G1 X110.227 Y88.043 E3.36762
G1 X108.605 Y88.043 E0.17264
G1 X132.587 Y112.025 E3.61178
G1 X132.587 Y112.545 E0.05542
G1 X131.487 Y112.545 E0.11723
G1 X108.085 Y89.143 E3.52437
G1 X108.085 Y90.765 E0.17264
G1 X129.865 Y112.545 E3.28021
G1 X128.244 Y112.545 E0.17264
G1 X108.085 Y92.386 E3.03606
G1 X108.085 Y94.007 E0.17264
G1 X126.623 Y112.545 E2.79190
G1 X125.002 Y112.545 E0.17264
G1 X108.085 Y95.628 E2.54774
G1 X108.085 Y97.249 E0.17264
G1 X123.381 Y112.545 E2.30359
G1 X121.759 Y112.545 E0.17264
G1 X108.085 Y98.870 E2.05943
G1 X108.085 Y100.492 E0.17264
G1 X120.138 Y112.545 E1.81528
G1 X118.517 Y112.545 E0.17264
G1 X108.085 Y102.113 E1.57112
G1 X108.085 Y103.734 E0.17264
G1 X116.896 Y112.545 E1.32697
G1 X115.275 Y112.545 E0.17264
G1 X108.085 Y105.355 E1.08281
G1 X108.085 Y106.976 E0.17264
G1 X113.654 Y112.545 E0.83866
G1 X112.032 Y112.545 E0.17264
G1 X108.085 Y108.598 E0.59450
G1 X108.085 Y110.219 E0.17264
G1 X110.411 Y112.545 E0.35034
G1 X108.790 Y112.545 E0.17264
G1 X107.569 Y111.324 E0.18388
; INIT stop printing object Shape-Box id:1 copy 0
; INIT printing object Shape-Box id:0 copy 1
; INIT stop printing object Shape-Box id:0 copy 1
; INIT printing object Shape-Box id:1 copy 1
;WIPE_START
G1 F38400
G1 X108.790 Y112.545 E-0.25630
G1 X110.411 Y112.545 E-0.24064
G1 X108.085 Y110.219 E-0.48834
G1 X108.085 Y108.856 E-0.20222
;WIPE_END
G1 E-0.06250 F6000
G1 Z1.400000 F10800
; stop printing object Shape-Box id:0 copy 1
; printing object Shape-Box id:1 copy 1
G1 X136.516 Y83.216 F48000
G1 Z0.250000 F10800
G1 E1.25000 F6000
;TYPE:Internal perimeter
;WIDTH:1.2
G1 F1200
G1 X136.516 Y57.108 E2.87736
G1 X162.623 Y57.108 E2.87736
G1 X162.623 Y83.216 E2.87736
G1 X136.696 Y83.216 E2.85753
G1 X135.369 Y84.362 F48000
;TYPE:External perimeter
G1 F1200
G1 X135.369 Y55.962 E3.13005
G1 X163.769 Y55.962 E3.13005
G1 X163.769 Y84.362 E3.13005
G1 X135.549 Y84.362 E3.11021
G1 X135.969 Y83.323 F48000
;WIPE_START
G1 F38400
G1 X135.499 Y76.362 E-1.18750
;WIPE_END
G1 E-0.06250 F6000
G1 Z0.900000 F10800
G1 X160.019 Y57.395 F48000
G1 Z0.250000 F10800
G1 E1.25000 F6000
;TYPE:Solid infill
;WIDTH:1.15949
G1 F1800
G1 X161.821 Y59.196 E0.27129
G1 X161.821 Y60.817 E0.17264
G1 X158.914 Y57.911 E0.43776
G1 X157.293 Y57.911 E0.17264
G1 X161.821 Y62.439 E0.68191
G1 X161.821 Y64.060 E0.17264
G1 X155.672 Y57.911 E0.92607
G1 X154.050 Y57.911 E0.17264
G1 X161.821 Y65.681 E1.17022
G1 X161.821 Y67.302 E0.17264
G1 X152.429 Y57.911 E1.41438
G1 X150.808 Y57.911 E0.17264
G1 X161.821 Y68.923 E1.65853
G1 X161.821 Y70.544 E0.17264
G1 X149.187 Y57.911 E1.90269
G1 X147.566 Y57.911 E0.17264
G1 X161.821 Y72.166 E2.14685
G1 X161.821 Y73.787 E0.17264
G1 X145.944 Y57.911 E2.39100
G1 X144.323 Y57.911 E0.17264
G1 X161.821 Y75.408 E2.63516
G1 X161.821 Y77.029 E0.17264
