; generated by SuperSlicer 2.3.56 on 2021-10-08 at 20:18:57 UTC

; 

; external perimeters extrusion width = 1.00mm
; perimeters extrusion width = 1.00mm
; infill extrusion width = 1.00mm
; solid infill extrusion width = 1.25mm
; top infill extrusion width = 1.05mm
; first layer extrusion width = 1.20mm

; external perimeters extrusion width = 1.00mm
; perimeters extrusion width = 1.00mm
; infill extrusion width = 1.00mm
; solid infill extrusion width = 1.25mm
; top infill extrusion width = 1.05mm
; first layer extrusion width = 1.20mm

; object:{"name":"Shape-Box","id":"Shape-Box id:0 copy 0","object_center":[150.000000,100.000000,0.000000],"boundingbox_center":[150.000000,100.000000,15.000000],"boundingbox_size":[30.000000,30.000000,30.000000]}
; object:{"name":"Shape-Box","id":"Shape-Box id:1 copy 0","object_center":[97.329957,100.000000,0.000000],"boundingbox_center":[97.329957,100.000000,15.000000],"boundingbox_size":[30.000000,30.000000,30.000000]}
; plater:{"center":[123.664979,100.000000,0.000000],"boundingbox_center":[123.664979,100.000000,15.000000],"boundingbox_size":[82.670043,30.000000,30.000000]}

;TYPE:Custom
T-1

M104 S225 T0 ; set extruder temp
M140 S65 ; set bed temp


G28
G29 S1

T0

M109 S225; wait for extruder temp
M190 S65 ; wait for bed temp

M98 P"prime.g"

G21 ; set units to millimeters
G90 ; use absolute coordinates
M83 ; use relative distances for extrusion
;LAYER_CHANGE
;Z:0.25
;HEIGHT:0.25
G1 Z0.250000 F10800
;Clean the nozzle must use a hardened nozzle!
;T0
;M98 P"brush.g"
G1 E-1.25000 F6000
G1 Z1.400000 F10800
G1 X77.429 Y79.021
G1 Z0.250000
G1 E1.25000 F6000
;TYPE:Skirt
;WIDTH:1.2
G1 F1200
M204 P1000
G1 X79.196 Y77.914 E0.22979
G1 X80.791 Y77.379 E0.18540
G1 X82.462 Y77.188 E0.18540
G1 X164.807 Y77.188 E9.07549
G1 X166.302 Y77.330 E0.16546
G1 X167.737 Y77.745 E0.16470
G1 X169.070 Y78.420 E0.16470
G1 X170.255 Y79.331 E0.16470
G1 X171.254 Y80.452 E0.16546
G1 X172.023 Y81.733 E0.16470
G1 X172.541 Y83.135 E0.16470
G1 X172.790 Y84.608 E0.16470
G1 X172.751 Y115.790 E3.43671
G1 X172.244 Y117.763 E0.22444
G1 X171.261 Y119.538 E0.22368
G1 X169.858 Y121.014 E0.22444
G1 X168.134 Y122.086 E0.22368
G1 X166.539 Y122.621 E0.18540
G1 X164.868 Y122.812 E0.18540
G1 X82.187 Y122.805 E9.11248
G1 X80.027 Y122.411 E0.24201
G1 X78.055 Y121.446 E0.24201
G1 X76.419 Y119.981 E0.24201
G1 X75.244 Y118.134 E0.24125
G1 X74.720 Y116.587 E0.18004
G1 X74.519 Y114.966 E0.18004
G1 X74.556 Y84.418 E3.36678
G1 X75.028 Y82.387 E0.22979
G1 X76.008 Y80.547 E0.22979
G1 X77.306 Y79.153 E0.20995
G1 X78.139 Y79.937 F10800
G1 F1200
G1 X78.199 Y79.873 E0.00967
G1 X79.751 Y78.922 E0.20060
G1 X81.084 Y78.488 E0.15455
G1 X82.485 Y78.334 E0.15526
G1 X164.806 Y78.334 E9.07294
G1 X166.093 Y78.457 E0.14248
G1 X167.328 Y78.817 E0.14177
G1 X168.475 Y79.400 E0.14177
G1 X169.497 Y80.192 E0.14248
G1 X170.348 Y81.156 E0.14177
G1 X171.008 Y82.268 E0.14248
G1 X171.448 Y83.483 E0.14248
G1 X171.651 Y84.754 E0.14177
G1 X171.623 Y115.562 E3.39552
G1 X171.198 Y117.292 E0.19636
G1 X170.337 Y118.860 E0.19707
G1 X169.101 Y120.152 E0.19707
G1 X167.579 Y121.078 E0.19636
G1 X166.246 Y121.512 E0.15455
G1 X164.845 Y121.666 E0.15526
G1 X82.265 Y121.661 E9.10147
G1 X80.385 Y121.322 E0.21050
G1 X78.677 Y120.483 E0.20979
G1 X77.260 Y119.201 E0.21050
G1 X76.252 Y117.579 E0.21050
G1 X75.825 Y116.277 E0.15100
G1 X75.665 Y114.917 E0.15100
G1 X75.692 Y84.579 E3.34355
G1 X76.096 Y82.804 E0.20060
G1 X76.951 Y81.198 E0.20060
G1 X78.015 Y80.068 E0.17110
; INIT printing object Shape-Box id:0 copy 0
;WIPE_START
G1 F8640
G1 X78.199 Y79.873 E-0.17663
G1 X79.505 Y79.072 E-1.01087
;WIPE_END
G1 E-0.06250 F6000
G1 Z1.400000 F10800
; printing object Shape-Box id:0 copy 0
G1 X136.946 Y86.946
G1 Z0.250000
G1 E1.25000 F6000
;TYPE:Internal perimeter
G1 F1200
G1 X163.054 Y86.946 E2.87736
G1 X163.054 Y113.054 E2.87736
G1 X136.946 Y113.054 E2.87736
G1 X136.946 Y87.126 E2.85753
G1 X135.800 Y85.800 F10800
;TYPE:External perimeter
G1 F1200
G1 X164.200 Y85.800 E3.13005
G1 X164.200 Y114.200 E3.13005
G1 X135.800 Y114.200 E3.13005
G1 X135.800 Y85.980 E3.11021
G1 X136.839 Y86.400 F10800
;WIPE_START
G1 F8640
G1 X137.600 Y85.969 E-1.18750
;WIPE_END
G1 E-0.06250 F6000
G1 Z0.900000 F10800
G1 X160.450 Y87.233
G1 Z0.250000
G1 E1.25000 F6000
;TYPE:Solid infill
;WIDTH:1.15949
G1 F1800
G1 X162.251 Y89.034 E0.27129
G1 X162.251 Y90.655 E0.17264
G1 X159.345 Y87.749 E0.43776
G1 X157.723 Y87.749 E0.17264
G1 X162.251 Y92.277 E0.68191
G1 X162.251 Y93.898 E0.17264
G1 X156.102 Y87.749 E0.92607
G1 X154.481 Y87.749 E0.17264
G1 X162.251 Y95.519 E1.17022
G1 X162.251 Y97.140 E0.17264
G1 X152.860 Y87.749 E1.41438
G1 X151.239 Y87.749 E0.17264
G1 X162.251 Y98.761 E1.65853
G1 X162.251 Y100.383 E0.17264
G1 X149.617 Y87.749 E1.90269
G1 X147.996 Y87.749 E0.17264
G1 X162.251 Y102.004 E2.14685
G1 X162.251 Y103.625 E0.17264
G1 X146.375 Y87.749 E2.39100
G1 X144.754 Y87.749 E0.17264
G1 X162.251 Y105.246 E2.63516
G1 X162.251 Y106.867 E0.17264
G1 X143.133 Y87.749 E2.87931
G1 X141.512 Y87.749 E0.17264
G1 X162.251 Y108.488 E3.12347
G1 X162.251 Y110.110 E0.17264
G1 X139.890 Y87.749 E3.36762
G1 X138.269 Y87.749 E0.17264
G1 X162.251 Y111.731 E3.61178
G1 X162.251 Y112.251 E0.05542
G1 X161.150 Y112.251 E0.11723
G1 X137.749 Y88.850 E3.52437
G1 X137.749 Y90.471 E0.17264
G1 X159.529 Y112.251 E3.28021
G1 X157.908 Y112.251 E0.17264
G1 X137.749 Y92.092 E3.03606
G1 X137.749 Y93.713 E0.17264
G1 X156.287 Y112.251 E2.79190
G1 X154.666 Y112.251 E0.17264
G1 X137.749 Y95.334 E2.54774
G1 X137.749 Y96.955 E0.17264
G1 X153.045 Y112.251 E2.30359
G1 X151.423 Y112.251 E0.17264
G1 X137.749 Y98.577 E2.05943
G1 X137.749 Y100.198 E0.17264
G1 X149.802 Y112.251 E1.81528
G1 X148.181 Y112.251 E0.17264
G1 X137.749 Y101.819 E1.57112
G1 X137.749 Y103.440 E0.17264
G1 X146.560 Y112.251 E1.32697
G1 X144.939 Y112.251 E0.17264
M106 S35
G1 X137.749 Y105.061 E1.08281
G1 X137.749 Y106.683 E0.17264
G1 X143.317 Y112.251 E0.83866
G1 X141.696 Y112.251 E0.17264
G1 X137.749 Y108.304 E0.59450
G1 X137.749 Y109.925 E0.17264
G1 X140.075 Y112.251 E0.35034
G1 X138.454 Y112.251 E0.17264
G1 X137.233 Y111.030 E0.18388
; INIT stop printing object Shape-Box id:0 copy 0
; INIT printing object Shape-Box id:1 copy 0
; INIT stop printing object Shape-Box id:1 copy 0
;WIPE_START
G1 F8640
G1 X138.454 Y112.251 E-1.13913
G1 X140.075 Y112.251 E-1.06953
G1 X137.749 Y109.925 E-2.17038
G1 X137.749 Y108.304 E-1.06953
G1 X141.696 Y112.251 E-3.68293
G1 X142.255 Y112.251 E-0.36851
;WIPE_END
G1 E-0.50000 F6000
G1 Z1.400000 F10800
M98 P"parkprep.g"
T1
M98 P"prime.g"
M106 S35
G1 E-1.25000 F6000
; stop printing object Shape-Box id:1 copy 0
; printing object Shape-Box id:1 copy 0
G1 X142.255 Y120.519 F10800
G1 Z0.250000
G1 E1.25000 F6000
;TYPE:Skirt
;WIDTH:1.2
G1 F1200
G1 X82.341 Y120.516 E6.60326
G1 X80.752 Y120.236 E0.17783
G1 X79.304 Y119.523 E0.17783
G1 X78.114 Y118.434 E0.17783
G1 X77.274 Y117.056 E0.17783
G1 X76.811 Y114.880 E0.24522
G1 X76.829 Y84.740 E3.32189
G1 X77.160 Y83.232 E0.17009
G1 X77.885 Y81.863 E0.17073
G1 X78.946 Y80.743 E0.17009
G1 X80.273 Y79.944 E0.17073
G1 X82.497 Y79.481 E0.25033
G1 X164.806 Y79.480 E9.07151
G1 X166.917 Y79.887 E0.23692
G1 X168.733 Y81.047 E0.23756
G1 X169.988 Y82.792 E0.23692
G1 X170.511 Y84.884 E0.23756
G1 X170.492 Y115.360 E3.35894
G1 X170.143 Y116.840 E0.16751
G1 X169.418 Y118.175 E0.16751
G1 X168.361 Y119.276 E0.16815
G1 X167.056 Y120.056 E0.16751
G1 X164.833 Y120.519 E0.25033
G1 X142.435 Y120.519 E2.46860
G1 X142.435 Y119.373 F10800
G1 F1200
G1 X82.403 Y119.371 E6.61624
G1 X81.111 Y119.148 E0.14449
G1 X79.936 Y118.567 E0.14449
G1 X78.974 Y117.676 E0.14449
G1 X78.306 Y116.554 E0.14391
G1 X77.957 Y114.851 E0.19156
G1 X77.968 Y84.883 E3.30285
G1 X78.229 Y83.647 E0.13930
G1 X78.815 Y82.533 E0.13872
G1 X79.687 Y81.618 E0.13930
G1 X80.776 Y80.976 E0.13930
G1 X82.510 Y80.627 E0.19499
G1 X164.805 Y80.627 E9.06996
G1 X166.502 Y80.955 E0.19042
G1 X167.959 Y81.893 E0.19099
G1 X168.962 Y83.306 E0.19099
G1 X169.368 Y84.990 E0.19099
G1 X169.358 Y115.175 E3.32670
G1 X169.087 Y116.393 E0.13757
G1 X168.496 Y117.493 E0.13757
G1 X167.630 Y118.392 E0.13757
G1 X166.554 Y119.024 E0.13757
G1 X164.819 Y119.373 E0.19499
G1 X142.615 Y119.373 E2.44727
; INIT printing object Shape-Box id:0 copy 0
; INIT stop printing object Shape-Box id:0 copy 0
; INIT printing object Shape-Box id:1 copy 0
;WIPE_START
G1 F8640
G1 X140.815 Y119.373 E-1.18750
;WIPE_END
G1 E-0.06250 F6000
G1 Z1.400000 F10800
; stop printing object Shape-Box id:0 copy 0
; printing object Shape-Box id:1 copy 0
G1 X110.384 Y113.054
G1 Z0.250000
G1 E1.25000 F6000
;TYPE:Internal perimeter
G1 F1200
G1 X84.276 Y113.054 E2.87736
G1 X84.276 Y86.946 E2.87736
G1 X110.384 Y86.946 E2.87736
G1 X110.384 Y112.874 E2.85753
G1 X111.530 Y114.200 F10800
;TYPE:External perimeter
G1 F1200
G1 X83.130 Y114.200 E3.13005
G1 X83.130 Y85.800 E3.13005
G1 X111.530 Y85.800 E3.13005
G1 X111.530 Y114.020 E3.11021
G1 X110.491 Y113.600 F10800
;WIPE_START
G1 F8640
G1 X109.730 Y114.031 E-1.18750
;WIPE_END
G1 E-0.06250 F6000
G1 Z0.900000 F10800
G1 X107.780 Y87.233
G1 Z0.250000
G1 E1.25000 F6000
;TYPE:Solid infill
;WIDTH:1.15949
G1 F1800
G1 X109.581 Y89.034 E0.27129
G1 X109.581 Y90.655 E0.17264
G1 X106.674 Y87.749 E0.43776
G1 X105.053 Y87.749 E0.17264
G1 X109.581 Y92.277 E0.68191
G1 X109.581 Y93.898 E0.17264
G1 X103.432 Y87.749 E0.92607
G1 X101.811 Y87.749 E0.17264
G1 X109.581 Y95.519 E1.17022
G1 X109.581 Y97.140 E0.17264
G1 X100.190 Y87.749 E1.41438
G1 X98.569 Y87.749 E0.17264
G1 X109.581 Y98.761 E1.65853
G1 X109.581 Y100.383 E0.17264
G1 X96.947 Y87.749 E1.90269
G1 X95.326 Y87.749 E0.17264
G1 X109.581 Y102.004 E2.14685
G1 X109.581 Y103.625 E0.17264
G1 X93.705 Y87.749 E2.39100
G1 X92.084 Y87.749 E0.17264
G1 X109.581 Y105.246 E2.63516
G1 X109.581 Y106.867 E0.17264
G1 X90.463 Y87.749 E2.87931
G1 X88.841 Y87.749 E0.17264
G1 X109.581 Y108.488 E3.12347
G1 X109.581 Y110.110 E0.17264
G1 X87.220 Y87.749 E3.36762
G1 X85.599 Y87.749 E0.17264
G1 X109.581 Y111.731 E3.61178
G1 X109.581 Y112.251 E0.05542
G1 X108.480 Y112.251 E0.11723
G1 X85.079 Y88.850 E3.52437
G1 X85.079 Y90.471 E0.17264
G1 X106.859 Y112.251 E3.28021
G1 X105.238 Y112.251 E0.17264
G1 X85.079 Y92.092 E3.03606
G1 X85.079 Y93.713 E0.17264
G1 X103.617 Y112.251 E2.79190
G1 X101.996 Y112.251 E0.17264
G1 X85.079 Y95.334 E2.54774
G1 X85.079 Y96.955 E0.17264
G1 X100.374 Y112.251 E2.30359
G1 X98.753 Y112.251 E0.17264
G1 X85.079 Y98.577 E2.05943
G1 X85.079 Y100.198 E0.17264
G1 X97.132 Y112.251 E1.81528
G1 X95.511 Y112.251 E0.17264
G1 X85.079 Y101.819 E1.57112
G1 X85.079 Y103.440 E0.17264
G1 X93.890 Y112.251 E1.32697
G1 X92.269 Y112.251 E0.17264
G1 X85.079 Y105.061 E1.08281
G1 X85.079 Y106.683 E0.17264
G1 X90.647 Y112.251 E0.83866
G1 X89.026 Y112.251 E0.17264
G1 X85.079 Y108.304 E0.59450
G1 X85.079 Y109.925 E0.17264
G1 X87.405 Y112.251 E0.35034
G1 X85.784 Y112.251 E0.17264
G1 X84.563 Y111.030 E0.18388
; INIT stop printing object Shape-Box id:1 copy 0
;LAYER_CHANGE
;Z:1
;HEIGHT:0.75
; stop printing object Shape-Box id:1 copy 0
G1 Z1.000000 F10800
;Clean the nozzle must use a hardened nozzle!
;T1
;M98 P"brush.g"
M104 S220 T0 ; set temperature
; INIT printing object Shape-Box id:0 copy 0
; INIT stop printing object Shape-Box id:0 copy 0
; INIT printing object Shape-Box id:1 copy 0
G1 E-1.25000 F6000
G1 Z1.650000 F10800
; stop printing object Shape-Box id:0 copy 0
; printing object Shape-Box id:1 copy 0
G1 X83.669 Y113.661
G1 Z1.000000
G1 E1.25000 F6000
;TYPE:Internal perimeter
;WIDTH:1
G1 F3000
M204 P800
G1 X83.669 Y86.339 E6.61203
G1 X110.991 Y86.339 E6.61203
G1 X110.991 Y113.661 E6.61203
G1 X83.849 Y113.661 E6.56847
M204 P1000
G1 X82.830 Y114.500 F10800
;TYPE:External perimeter
G1 F2100
M204 P800
G1 X82.830 Y85.500 E7.01814
G1 X111.830 Y85.500 E7.01814
G1 X111.830 Y114.500 E7.01814
G1 X83.010 Y114.500 E6.97458
M204 P1000
G1 X83.430 Y113.461 F10800
;WIPE_START
G1 F8640
G1 X82.999 Y112.700 E-1.18750
;WIPE_END
G1 E-0.06250 F6000
G1 Z1.650000 F10800
G1 X86.272 Y86.524
G1 Z1.000000
G1 E1.25000 F6000
;TYPE:Solid infill
;WIDTH:1.22064
G1 F2400
G1 X84.344 Y88.452 E0.83661
G1 X84.344 Y89.993 E0.47241
G1 X87.323 Y87.014 E1.29212
G1 X88.863 Y87.014 E0.47241
G1 X84.344 Y91.533 E1.96021
G1 X84.344 Y93.073 E0.47241
G1 X90.403 Y87.014 E2.62830
G1 X91.943 Y87.014 E0.47241
G1 X84.344 Y94.613 E3.29640
G1 X84.344 Y96.153 E0.47241
G1 X93.483 Y87.014 E3.96449
G1 X95.023 Y87.014 E0.47241
G1 X84.344 Y97.693 E4.63259
G1 X84.344 Y99.233 E0.47241
G1 X96.563 Y87.014 E5.30068
G1 X98.104 Y87.014 E0.47241
G1 X84.344 Y100.774 E5.96878
G1 X84.344 Y102.314 E0.47241
G1 X99.644 Y87.014 E6.63687
G1 X101.184 Y87.014 E0.47241
G1 X84.344 Y103.854 E7.30496
G1 X84.344 Y105.394 E0.47241
G1 X102.724 Y87.014 E7.97306
G1 X104.264 Y87.014 E0.47241
G1 X84.344 Y106.934 E8.64115
G1 X84.344 Y108.474 E0.47241
G1 X105.804 Y87.014 E9.30925
G1 X107.344 Y87.014 E0.47241
G1 X84.344 Y110.014 E9.97734
G1 X84.344 Y111.555 E0.47241
G1 X108.885 Y87.014 E10.64544
G1 X110.316 Y87.014 E0.43909
G1 X110.316 Y87.123 E0.03333
G1 X84.452 Y112.986 E11.21927
G1 X85.993 Y112.986 E0.47241
G1 X110.316 Y88.663 E10.55117
G1 X110.316 Y90.203 E0.47241
G1 X87.533 Y112.986 E9.88308
G1 X89.073 Y112.986 E0.47241
G1 X110.316 Y91.743 E9.21499
G1 X110.316 Y93.283 E0.47241
G1 X90.613 Y112.986 E8.54689
G1 X92.153 Y112.986 E0.47241
G1 X110.316 Y94.823 E7.87880
G1 X110.316 Y96.363 E0.47241
G1 X93.693 Y112.986 E7.21070
G1 X95.234 Y112.986 E0.47241
G1 X110.316 Y97.904 E6.54261
G1 X110.316 Y99.444 E0.47241
G1 X96.774 Y112.986 E5.87451
G1 X98.314 Y112.986 E0.47241
G1 X110.316 Y100.984 E5.20642
G1 X110.316 Y102.524 E0.47241
G1 X99.854 Y112.986 E4.53832
G1 X101.394 Y112.986 E0.47241
G1 X110.316 Y104.064 E3.87023
G1 X110.316 Y105.604 E0.47241
M106 S35
G1 X102.934 Y112.986 E3.20214
G1 X104.474 Y112.986 E0.47241
G1 X110.316 Y107.144 E2.53404
G1 X110.316 Y108.685 E0.47241
G1 X106.015 Y112.986 E1.86595
G1 X107.555 Y112.986 E0.47241
G1 X110.316 Y110.225 E1.19785
G1 X110.316 Y111.765 E0.47241
G1 X108.605 Y113.476 E0.74234
; INIT stop printing object Shape-Box id:1 copy 0
;WIPE_START
G1 F8640
G1 X110.316 Y111.765 E-1.59664
G1 X110.316 Y110.225 E-1.01607
G1 X107.555 Y112.986 E-2.57634
G1 X106.015 Y112.986 E-1.01607
G1 X109.546 Y109.455 E-3.29488
;WIPE_END
G1 E-0.50000 F6000
G1 Z1.650000 F10800
M98 P"parkprep.g"
T0
M98 P"prime.g"
; INIT printing object Shape-Box id:0 copy 0
; stop printing object Shape-Box id:1 copy 0
; printing object Shape-Box id:0 copy 0
G1 X136.339 Y113.661
G1 Z1.000000
G1 E10.00000 F6000
;TYPE:Internal perimeter
;WIDTH:1
G1 F3000
M204 P800
G1 X136.339 Y86.339 E6.61203
G1 X163.661 Y86.339 E6.61203
G1 X163.661 Y113.661 E6.61203
G1 X136.519 Y113.661 E6.56847
M204 P1000
G1 X135.500 Y114.500 F10800
;TYPE:External perimeter
G1 F2100
M204 P800
G1 X135.500 Y85.500 E7.01814
G1 X164.500 Y85.500 E7.01814
G1 X164.500 Y114.500 E7.01814
G1 X135.680 Y114.500 E6.97458
M204 P1000
G1 X136.100 Y113.461 F10800
;WIPE_START
G1 F8640
G1 X135.669 Y112.700 E-1.18750
;WIPE_END
G1 E-0.06250 F6000
G1 Z1.650000 F10800
G1 X138.942 Y86.524
G1 Z1.000000
G1 E1.25000 F6000
;TYPE:Solid infill
;WIDTH:1.22064
G1 F2400
G1 X137.014 Y88.452 E0.83661
G1 X137.014 Y89.993 E0.47241
G1 X139.993 Y87.014 E1.29212
G1 X141.533 Y87.014 E0.47241
G1 X137.014 Y91.533 E1.96021
G1 X137.014 Y93.073 E0.47241
G1 X143.073 Y87.014 E2.62830
G1 X144.613 Y87.014 E0.47241
G1 X137.014 Y94.613 E3.29640
G1 X137.014 Y96.153 E0.47241
G1 X146.153 Y87.014 E3.96449
G1 X147.693 Y87.014 E0.47241
G1 X137.014 Y97.693 E4.63259
G1 X137.014 Y99.233 E0.47241
G1 X149.233 Y87.014 E5.30068
G1 X150.774 Y87.014 E0.47241
G1 X137.014 Y100.774 E5.96878
G1 X137.014 Y102.314 E0.47241
G1 X152.314 Y87.014 E6.63687
G1 X153.854 Y87.014 E0.47241
G1 X137.014 Y103.854 E7.30496
G1 X137.014 Y105.394 E0.47241
G1 X155.394 Y87.014 E7.97306
G1 X156.934 Y87.014 E0.47241
G1 X137.014 Y106.934 E8.64115
G1 X137.014 Y108.474 E0.47241
G1 X158.474 Y87.014 E9.30925
G1 X160.014 Y87.014 E0.47241
G1 X137.014 Y110.014 E9.97734
G1 X137.014 Y111.555 E0.47241
G1 X161.555 Y87.014 E10.64544
G1 X162.986 Y87.014 E0.43909
G1 X162.986 Y87.123 E0.03333
G1 X137.123 Y112.986 E11.21927
